X:198
T:Charlie Hunter #2 
C:Joe Buchanan's Scottish Tome - Page 277.3
I:277 3
R:Jig
Z:Carl Allison
L:1/8
M:6/8
K:D
A | DFA GBd | Adf a2 g | fed Bcd | ecA GFE | 
DFA GBd | Adf a2 g | fef gec |  edd d2 :|
f/g/ | afd d2 c | BGG G2 F | E^GB e2 d | cAA Aag | 
fdA FDF | GBd g2 g | fef gec |  edd d2:|

